Papirus/16x16/apps/google-chrome-beta.svg

<svg xmlns="http://www.w3.org/2000/svg" width="16" height="16" version="1">
 <path style="fill:#109f5b" d="m 3,12 c 1.4012,2.4293 2.1036645,1.8518 4.6968645,2 C 10.461565,12.474 11.771,12.5352 11.055,9.9006 10.752,10.3952 10.332,10.8232 9.7929,11.1352 8.9365,11.6302 8.1436,11.1102 7.2608,10.8782 6.366,10.6432 5.3837,10.6872 4.8825,9.8181 L 1.3128,3.6292 C 0.25378588,5.2397373 -0.19171679,7.1918336 0.07614455,9.1130181 0.21464798,10.106408 1.7516619,10.074632 2.2854235,11 Z"/>
 <path style="fill:#ffce41" d="m 8.1074219,4 c 0.5792,0.015661 1.1603187,0.5693994 1.6992187,0.8808594 0.9216804,0.53264 0.8352024,1.584975 1.0390624,2.546875 0.17761,0.83803 1.065153,1.6825281 0.601563,2.4863281 L 7.2882443,14.136719 c 0.034492,0.0022 0.068998,0.0041 0.1035156,0.0059 0.3181752,0.01432 0.6356838,0.01385 0.9511719,-0.0098 0.059323,-0.0065 0.1185716,-0.01366 0.1777344,-0.02148 C 8.7736596,14.086647 9.0256977,14.048578 9.2745725,14 c 0.122352,-0.02384 0.24413,-0.05054 0.3652343,-0.08008 0.2103489,-0.05141 0.4175232,-0.11327 0.6230472,-0.181641 0.102901,-0.03243 0.205135,-0.06695 0.306641,-0.103516 0.27927,-0.105704 0.553706,-0.22633 0.820312,-0.363281 0.108845,-0.05934 0.216296,-0.121209 0.322266,-0.185547 0.177318,-0.101847 0.351695,-0.208343 0.521484,-0.324218 0.105253,-0.07109 0.208798,-0.144681 0.310547,-0.220704 0.201482,-0.152228 0.396107,-0.315681 0.583984,-0.488281 0.05202,-0.04491 0.103454,-0.09048 0.154297,-0.136719 0.23811,-0.230497 0.46245,-0.478595 0.673828,-0.742187 0.04305,-0.05543 0.08537,-0.111425 0.126953,-0.167969 0.192702,-0.253628 0.375557,-0.519016 0.541016,-0.800781 0.01577,-0.02595 0.0314,-0.05199 0.04687,-0.07813 0.49725,-0.8698708 1.082633,-2.58e-4 1.230495,-0.9968823 0.05769,-0.3888343 0.08963,-0.781389 0.09649,-1.1730395 0.0033,-0.1873937 -0.01342,-0.3721923 -0.02149,-0.5585937 C 15.882789,6.2003469 15.5203,5.0387761 14.916016,4 Z"/>
 <path style="fill:#dd4d3e" d="m8 0a8 8 0 0 0 -0.3984375 0.013671875c-1.3967107 0.069523137-2.7712496 0.54380334-3.9628906 1.28125a8 8 0 0 0 -2.75 3.0566406l3.6914062 5.7265625c-0.3008147-0.4952059-0.149286-1.2845618-0.1796875-1.90625-0.0520376-1.0632458 0.8783731-1.5611673 1.5761719-2.2539062 0.6079375-0.6035327 0.8369145-1.8054014 1.7636719-1.8515626l7.2050776-0.0175781a8 8 0 0 0 -6.945312 -4.0488281z"/>
 <rect fill="#fff" width="8" height="8" x="-12" y="-12" rx="4" ry="4" transform="matrix(0,-1,-1,0,0,0)"/>
 <rect style="fill:#4587f3" width="6" height="6" x="-11" y="-11" rx="3" ry="3" transform="matrix(0,-1,-1,0,0,0)"/>
 <path style="fill:#4f4f4f" d="M 0.072265625 9 A 8 8 0 0 0 5.6367188 15.642578 A 8 8 0 0 0 6.3574219 15.826172 A 8.2352942 8.2352942 0 0 0 6.6230469 15.873047 A 8 8 0 0 0 7.1171875 15.947266 A 8.2352942 8.2352942 0 0 0 7.5546875 15.978516 A 8 8 0 0 0 8 16 A 8 8 0 0 0 8.0019531 16 A 8.2352942 8.2352942 0 0 0 8.0058594 16 A 8.2352942 8.2352942 0 0 0 8.7070312 15.962891 A 8 8 0 0 0 9.1210938 15.912109 A 8.2352942 8.2352942 0 0 0 9.453125 15.861328 A 8 8 0 0 0 10.021484 15.736328 A 8.2352942 8.2352942 0 0 0 10.195312 15.691406 A 8 8 0 0 0 15.929688 9 L 0.072265625 9 z"/>
 <path style="fill:#ffffff" d="m 5,10 v 0.333984 1 0.332032 1 V 13 H 6.3339844 C 6.7033184,13 7,12.53532 7,12.166016 7,11.935484 6.8839422,11.668422 6.7070312,11.5 6.8839422,11.331577 7,11.064515 7,10.833984 7,10.464679 6.7033184,10 6.3339844,10 h -1 z m 0.3339844,0.333984 h 1 c 0.190433,0 0.3320312,0.309582 0.3320312,0.5 0,0.190417 -0.1415982,0.5 -0.3320312,0.5 h -1 z m 0,1.332032 h 1 c 0.190433,0 0.3320312,0.309582 0.3320312,0.5 0,0.190417 -0.1415982,0.5 -0.3320312,0.5 h -1 z"/>
 <path style="fill:#ffffff" d="m 9.033333,10.499964 c 0,0.21599 0.0025,0.32236 0.0026,0.499961 H 8.7 v 0.333308 h 0.337891 c 0.0037,0.577403 0.01652,1.013139 0.08529,1.253809 0.04973,0.17404 0.157786,0.309962 0.298177,0.364555 0.140392,0.05459 0.278646,0.04817 0.445313,0.04817 V 12.66646 c -0.166667,0 -0.2777619,-0.0071 -0.32487,-0.02539 -0.04711,-0.01832 -0.06405,-0.02822 -0.09766,-0.145822 -0.04642,-0.162452 -0.06154,-0.586972 -0.06901,-1.16202 h 0.32487 V 10.999919 H 9.371876 c -9.999e-4,-0.178406 -0.0052,-0.283447 -0.0052,-0.499961 z"/>
 <path style="fill:#ffffff" d="M 7.8613281,11 C 7.6890811,11 7.537255,11.04152 7.40625,11.123047 7.2776723,11.204577 7.1782487,11.319636 7.1054687,11.470703 7.0351187,11.62177 7,11.802657 7,12.013672 c 0,0.21581 0.037597,0.396698 0.1152344,0.542969 0.08006,0.146272 0.1913235,0.257696 0.3320312,0.332031 C 7.5879736,12.963002 7.750698,13 7.9375,13 8.070931,13 8.1861621,12.98838 8.2832031,12.9668 8.3802431,12.94762 8.478659,12.91816 8.578125,12.875 v -0.277344 c -0.101892,0.04316 -0.199834,0.07564 -0.296875,0.09961 -0.09461,0.02158 -0.204398,0.0332 -0.328125,0.0332 -0.19408,0 -0.3459072,-0.05722 -0.4550782,-0.169922 C 7.3922982,12.446522 7.3377768,12.216446 7.3320312,12 c -5.41e-5,-0.002 -0.00191,-0.0038 -0.00195,-0.0059 h 0.00195 V 12 h 1.3339844 v -0.128906 c 0,-0.175046 -0.032146,-0.327545 -0.097656,-0.457032 -0.06308,-0.131883 -0.156044,-0.234704 -0.277344,-0.30664 C 8.1697146,11.035482 8.0262971,11 7.8613281,11 Z m -0.00391,0.259766 c 0.1625431,0 0.2822159,0.05119 0.3574219,0.154296 0.05099,0.06828 0.078173,0.155027 0.095703,0.251954 H 7.3691406 c 0.02677,-0.102675 0.064751,-0.193603 0.125,-0.259766 0.08976,-0.09831 0.2104432,-0.146484 0.3632812,-0.146484 z"/>
 <path style="fill:#ffffff" d="m 10.726563,11 c -0.133431,0 -0.248662,0.01162 -0.345703,0.0332 -0.09704,0.01918 -0.195456,0.04864 -0.294922,0.0918 v 0.277344 c 0.101892,-0.04316 0.201787,-0.07564 0.298828,-0.09961 0.09461,-0.02158 0.204398,-0.0332 0.328125,-0.0332 0.19408,0 0.345907,0.05722 0.455078,0.169922 0.05077,0.05474 0.08961,0.136493 0.117188,0.230469 l -0.208985,0.0059 c -0.366034,0.0107 -0.636469,0.07572 -0.8125,0.19336 C 10.087641,11.984109 10,12.147435 10,12.361328 c 0,0.219239 0.06705,0.382056 0.201172,0.486328 C 10.335291,12.949256 10.503059,13 10.707032,13 c 0.187208,0 0.33634,-0.02783 0.445312,-0.08398 0.06229,-0.03209 0.120942,-0.07662 0.179688,-0.128907 V 12.822266 13 h 0.333984 v -1 h -0.002 c 3.9e-5,-0.0051 0.002,-0.0086 0.002,-0.01367 0,-0.215811 -0.03955,-0.396697 -0.117188,-0.542969 C 11.468768,11.29709 11.359458,11.185664 11.21875,11.11133 11.078042,11.036998 10.913365,11 10.726563,11 Z m 0.599609,0.914062 c 0.0025,0.02898 0.007,0.05715 0.0078,0.08594 h -0.002 v 0.0059 0.488282 c -0.02146,0.02636 -0.04307,0.05072 -0.07031,0.07226 -0.125736,0.09892 -0.283495,0.148438 -0.470703,0.148438 -0.120148,0 -0.218638,-0.02783 -0.296875,-0.08399 -0.07544,-0.05615 -0.113281,-0.143357 -0.113281,-0.263671 0,-0.136358 0.05203,-0.243498 0.158203,-0.31836 0.108972,-0.07486 0.304569,-0.116258 0.583984,-0.126953 z"/>
</svg>

<svg xmlns="http://www.w3.org/2000/svg" width="16" height="16" version="1">
 <path style="fill:#109f5b" d="M 1.078,12.017 C 2.479,14.446 4.947,15.852 7.541,16 10.306,14.474 11.772,12.535 11.056,9.9 10.753,10.395 10.333,10.823 9.794,11.135 8.938,11.63 8.145,11.11 7.262,10.878 6.367,10.643 5.385,10.687 4.884,9.818 L 1.314,3.629 C -0.293,6.072 -0.487,9.302 1.079,12.017 Z"/>
 <path style="fill:#ffce41" d="M 8.107,4 C 8.687,4.016 9.268,4.569 9.807,4.881 10.728,5.413 10.642,6.466 10.846,7.428 11.023,8.266 11.911,9.11 11.447,9.914 L 7.557,15.979 C 7.591,15.981 7.626,15.983 7.66,15.984 7.978,15.999 8.296,15.998 8.611,15.975 12.219,15.579 14.03,13.504 14.939,11.969 15.631,10.759 15.974,9.352 15.998,7.957 16.001,7.77 15.985,7.585 15.977,7.398 15.883,6.2 15.52,5.039 14.916,4 Z"/>
 <path style="fill:#dd4d3e" d="M 8,0 A 8,8 0 0 0 7.602,0.014 C 6.205,0.084 4.831,0.558 3.639,1.295 A 8,8 0 0 0 0.889,4.352 L 4.58,10.079 C 4.279,9.584 4.431,8.794 4.4,8.173 4.348,7.11 5.278,6.612 5.976,5.919 6.584,5.315 6.813,4.114 7.74,4.067 L 14.945,4.049 A 8,8 0 0 0 8,0 Z"/>
 <circle style="fill:#ffffff" cx="8" cy="8" r="4"/>
 <circle style="fill:#4587f3" cx="8" cy="8" r="3"/>
 <path style="fill:#4f4f4f" d="M 0.07227,9 A 8,8 0 0 0 8,16 8,8 0 0 0 15.928,9 Z"/>
 <path style="fill:#ffffff" d="M 10.727,11 C 10.593,11 10.478,11.012 10.381,11.033 10.284,11.052 10.185,11.082 10.086,11.125 V 11.402 C 10.188,11.359 10.288,11.327 10.385,11.303 10.479,11.281 10.589,11.27 10.713,11.27 10.907,11.27 11.059,11.327 11.168,11.439 11.219,11.494 11.258,11.576 11.285,11.67 L 11.076,11.676 C 10.71,11.687 10.44,11.752 10.264,11.869 10.088,11.984 10,12.147 10,12.361 10,12.581 10.067,12.743 10.201,12.848 10.335,12.949 10.503,13 10.707,13 10.894,13 11.043,12.972 11.152,12.916 11.215,12.884 11.273,12.839 11.332,12.787 V 13 H 11.666 V 11.986 C 11.666,11.771 11.626,11.59 11.549,11.443 11.469,11.297 11.359,11.186 11.219,11.111 11.078,11.037 10.913,11 10.727,11 Z M 11.326,11.914 11.332,12.494 C 11.311,12.521 11.289,12.545 11.262,12.566 11.136,12.665 10.978,12.715 10.791,12.715 10.671,12.715 10.572,12.687 10.494,12.631 10.419,12.575 10.381,12.488 10.381,12.367 10.381,12.231 10.433,12.124 10.539,12.049 10.648,11.974 10.844,11.933 11.123,11.922 Z M 7.8613,11 C 7.6891,11 7.5373,11.042 7.4062,11.123 7.2777,11.205 7.1782,11.32 7.1055,11.471 7.0351,11.622 7,11.803 7,12.014 7,12.229 7.0376,12.41 7.1152,12.557 7.1953,12.703 7.3066,12.814 7.4473,12.889 7.588,12.963 7.7507,13 7.9375,13 8.0709,13 8.1862,12.988 8.2832,12.967 8.3802,12.948 8.4787,12.918 8.5781,12.875 V 12.598 C 8.4762,12.641 8.3783,12.673 8.2812,12.697 8.1866,12.719 8.0769,12.73 7.9531,12.73 7.759,12.73 7.6072,12.673 7.498,12.561 7.3923,12.447 7.3378,12.216 7.332,12 7.3318,11.993 8.666,12 8.666,12 V 11.871 C 8.666,11.696 8.6339,11.544 8.5684,11.414 8.5053,11.282 8.4123,11.179 8.291,11.107 8.1697,11.035 8.0263,11 7.8613,11 Z M 7.8574,11.26 C 8.02,11.26 8.1396,11.311 8.2148,11.414 8.2658,11.482 8.293,11.569 8.3105,11.666 H 7.3691 C 7.3959,11.563 7.4339,11.472 7.4941,11.406 7.5839,11.308 7.7046,11.26 7.8574,11.26 Z M 9.0333,10.5 C 9.0333,10.716 9.0358,10.822 9.0359,11 H 8.7 V 11.333 H 9.0379 C 9.0416,11.911 9.0544,12.346 9.1232,12.587 9.1729,12.761 9.281,12.897 9.4214,12.952 9.5618,13.006 9.7,13 9.8667,13 V 12.666 C 9.7,12.666 9.5889,12.659 9.5418,12.641 9.4947,12.623 9.4778,12.613 9.4441,12.495 9.3977,12.333 9.3826,11.908 9.3751,11.333 H 9.7 V 11 H 9.3719 C 9.3709,10.822 9.3667,10.716 9.3667,10.5 Z M 5,10 V 13 H 6.334 C 6.7033,13 7,12.535 7,12.166 7,11.935 6.8839,11.668 6.707,11.5 6.8839,11.332 7,11.065 7,10.834 7,10.465 6.7033,10 6.334,10 Z M 5.334,10.334 H 6.334 C 6.5244,10.334 6.666,10.644 6.666,10.834 6.666,11.024 6.5244,11.334 6.334,11.334 H 5.334 Z M 5.334,11.666 H 6.334 C 6.5244,11.666 6.666,11.976 6.666,12.166 6.666,12.356 6.5244,12.666 6.334,12.666 H 5.334 Z"/>
</svg>
